!!!OTL: Warepu
!!!ONR: No. 12
!! From Jaap Kunst "Music in New Guinea; Three Studies"
!! Verhandelingen van het Koninkluijk Instituut voor Taal-,
!! Land- end Volkenkunde, Deel 53
!! English translation and correction by Jeune Scott-Kemball
!! Publication Place: 'S-Gravenhage
!! Publisher: Martinus Nijhoff, 1967
!! From Chapter II: Songs of New Guinea, page 92
!!PLACE: Pacifica, New Guinea, Warope\n Coast
!!SINGER: [unknown]
!!!PSX: M
!!!ENCODER: D. Huron
**kern
*clefF4
*k[]
!! Meter signature is an interpreted editorial addition.
*M4/4
8F
8E
=1
4G
4F
4D
8F
8E
=2
4G
4F
4D
8F
8E
=3
4G
4F
4D
8F
8E
=4
4G
4F
4D
8F
8E
=5
4G
4F
4D
8F
8E
=6
4G
4F
4D
8F
8E
=7
4G
4F
4D
8F
8E
=8
4G
4F
4D
!! etc.
*-
